inst/assets/svg/wi-train.svg

<?xml version="1.0" encoding="UTF-8"?>
<svg xmlns="http://www.w3.org/2000/svg" xmlns:xlink="http://www.w3.org/1999/xlink" width="30pt" height="30pt" viewBox="0 0 30 30" version="1.1">
<g id="surface1006">
<path style=" stroke:none;fill-rule:nonzero;fill:rgb(0%,0%,0%);fill-opacity:1;" d="M 4.25 12.679688 L 4.25 12.359375 C 4.25 12.261719 4.28125 12.179688 4.351563 12.109375 C 4.421875 12.039063 4.5 12.011719 4.601563 12.011719 L 12.179688 12.011719 C 12.28125 12.011719 12.359375 12.039063 12.429688 12.109375 C 12.5 12.179688 12.53125 12.261719 12.53125 12.359375 L 12.53125 12.679688 C 12.53125 12.78125 12.5 12.859375 12.429688 12.929688 C 12.359375 13 12.28125 13.03125 12.179688 13.03125 L 11.738281 13.03125 L 11.738281 14.679688 L 13.859375 14.679688 C 13.878906 14.398438 14 14.160156 14.210938 13.96875 C 14.421875 13.78125 14.671875 13.679688 14.960938 13.679688 C 15.25 13.679688 15.488281 13.78125 15.699219 13.96875 C 15.910156 14.160156 16.019531 14.398438 16.050781 14.679688 L 17.371094 14.679688 L 17.371094 11.289063 C 17.230469 11.28125 17.121094 11.230469 17.019531 11.128906 C 16.921875 11.03125 16.871094 10.898438 16.871094 10.761719 L 16.871094 10.449219 C 16.871094 10.308594 16.921875 10.179688 17.03125 10.070313 C 17.140625 9.960938 17.269531 9.910156 17.421875 9.910156 L 19.410156 9.910156 C 19.558594 9.910156 19.691406 9.960938 19.789063 10.070313 C 19.890625 10.179688 19.941406 10.300781 19.941406 10.449219 L 19.941406 10.761719 C 19.941406 10.898438 19.890625 11.03125 19.800781 11.128906 C 19.710938 11.230469 19.601563 11.289063 19.460938 11.289063 L 19.460938 14.679688 L 21.019531 14.679688 C 21.289063 14.679688 21.53125 14.78125 21.730469 14.980469 C 21.929688 15.179688 22.03125 15.421875 22.03125 15.691406 L 22.03125 18.621094 L 25.761719 23.488281 L 21.019531 23.488281 L 21.019531 20.449219 L 20.308594 20.449219 C 20.421875 20.710938 20.46875 20.988281 20.46875 21.28125 C 20.46875 21.890625 20.261719 22.398438 19.828125 22.839844 C 19.398438 23.269531 18.878906 23.488281 18.28125 23.488281 C 17.671875 23.488281 17.160156 23.269531 16.71875 22.839844 C 16.289063 22.410156 16.070313 21.890625 16.070313 21.28125 C 16.070313 20.988281 16.121094 20.710938 16.230469 20.449219 L 15.230469 20.449219 C 15.339844 20.71875 15.398438 21 15.398438 21.28125 C 15.398438 21.890625 15.179688 22.398438 14.75 22.839844 C 14.320313 23.28125 13.800781 23.488281 13.191406 23.488281 C 12.578125 23.488281 12.070313 23.269531 11.640625 22.839844 C 11.210938 22.410156 11 21.890625 11 21.28125 C 11 20.988281 11.050781 20.710938 11.160156 20.449219 L 9.96875 20.449219 C 10.089844 20.738281 10.148438 21.019531 10.148438 21.28125 C 10.148438 21.890625 9.929688 22.398438 9.5 22.839844 C 9.070313 23.28125 8.550781 23.488281 7.941406 23.488281 C 7.328125 23.488281 6.820313 23.269531 6.378906 22.839844 C 5.941406 22.410156 5.730469 21.890625 5.730469 21.28125 C 5.730469 20.988281 5.789063 20.710938 5.898438 20.441406 C 5.660156 20.398438 5.449219 20.289063 5.289063 20.101563 C 5.128906 19.910156 5.050781 19.691406 5.050781 19.441406 L 5.050781 18.578125 L 5.03125 18.578125 L 5.03125 13.03125 L 4.601563 13.03125 C 4.5 13.03125 4.421875 13 4.351563 12.929688 C 4.28125 12.859375 4.25 12.78125 4.25 12.679688 Z M 6.300781 16.621094 C 6.300781 16.828125 6.371094 17.011719 6.519531 17.160156 C 6.671875 17.308594 6.851563 17.378906 7.058594 17.378906 L 8.5 17.378906 C 8.710938 17.378906 8.890625 17.308594 9.03125 17.160156 C 9.171875 17.011719 9.25 16.828125 9.25 16.621094 L 9.25 14.320313 C 9.25 14.109375 9.179688 13.941406 9.03125 13.789063 C 8.878906 13.640625 8.710938 13.570313 8.5 13.570313 L 7.070313 13.570313 C 6.859375 13.570313 6.679688 13.640625 6.53125 13.800781 C 6.378906 13.949219 6.308594 14.121094 6.308594 14.320313 L 6.308594 16.621094 Z M 15.78125 5.429688 C 15.78125 5.839844 15.941406 6.191406 16.25 6.46875 C 16.25 6.671875 16.339844 6.898438 16.511719 7.148438 C 16.679688 7.398438 16.871094 7.550781 17.070313 7.589844 C 17.109375 7.808594 17.21875 8 17.378906 8.160156 C 17.539063 8.308594 17.738281 8.410156 17.96875 8.460938 C 17.859375 8.570313 17.808594 8.699219 17.808594 8.851563 C 17.808594 9.03125 17.871094 9.179688 17.988281 9.300781 C 18.109375 9.421875 18.261719 9.480469 18.441406 9.480469 C 18.621094 9.480469 18.769531 9.421875 18.898438 9.289063 C 19.03125 9.171875 19.089844 9.011719 19.089844 8.839844 C 19.089844 8.820313 19.089844 8.789063 19.078125 8.75 C 19.070313 8.710938 19.070313 8.671875 19.070313 8.648438 L 19.101563 8.648438 C 19.308594 8.648438 19.488281 8.570313 19.640625 8.421875 C 19.789063 8.269531 19.871094 8.078125 19.871094 7.871094 C 19.871094 7.769531 19.828125 7.648438 19.75 7.488281 C 19.921875 7.398438 20.058594 7.238281 20.160156 7.019531 L 20.609375 7.019531 C 21 7 21.339844 6.851563 21.609375 6.570313 C 21.890625 6.289063 22.03125 5.960938 22.03125 5.558594 C 22.03125 5.21875 21.921875 4.921875 21.699219 4.660156 C 21.480469 4.398438 21.199219 4.230469 20.871094 4.140625 C 20.789063 3.738281 20.578125 3.410156 20.25 3.148438 C 19.921875 2.890625 19.539063 2.761719 19.128906 2.761719 C 18.71875 2.761719 18.359375 2.890625 18.050781 3.140625 C 17.738281 3.390625 17.53125 3.71875 17.429688 4.109375 L 17.320313 4.109375 C 16.910156 4.109375 16.550781 4.238281 16.238281 4.5 C 15.929688 4.75 15.78125 5.070313 15.78125 5.429688 Z M 15.78125 5.429688 "/>
</g>
</svg>

<?xml version="1.0" encoding="utf-8"?>
<!-- Generator: Adobe Illustrator 22.0.1, SVG Export Plug-In . SVG Version: 6.00 Build 0)  -->
<svg version="1.1" id="Layer_1" xmlns="http://www.w3.org/2000/svg" xmlns:xlink="http://www.w3.org/1999/xlink" x="0px" y="0px"
	 viewBox="0 0 30 30" style="enable-background:new 0 0 30 30;" xml:space="preserve">
<path d="M4.25,12.68v-0.32c0-0.1,0.03-0.18,0.1-0.25c0.07-0.07,0.15-0.1,0.25-0.1h7.58c0.1,0,0.18,0.03,0.25,0.1
	c0.07,0.07,0.1,0.15,0.1,0.25v0.32c0,0.1-0.03,0.18-0.1,0.25c-0.07,0.07-0.15,0.1-0.25,0.1h-0.44v1.65h2.12
	c0.02-0.28,0.14-0.52,0.35-0.71c0.21-0.19,0.46-0.29,0.75-0.29c0.29,0,0.53,0.1,0.74,0.29c0.21,0.19,0.32,0.43,0.35,0.71h1.32v-3.39
	c-0.14-0.01-0.25-0.06-0.35-0.16c-0.1-0.1-0.15-0.23-0.15-0.37v-0.31c0-0.14,0.05-0.27,0.16-0.38s0.24-0.16,0.39-0.16h1.99
	c0.15,0,0.28,0.05,0.38,0.16s0.15,0.23,0.15,0.38v0.31c0,0.14-0.05,0.27-0.14,0.37c-0.09,0.1-0.2,0.16-0.34,0.16v3.39h1.56
	c0.27,0,0.51,0.1,0.71,0.3s0.3,0.44,0.3,0.71v2.93l3.73,4.87h-4.74v-3.04h-0.71c0.11,0.26,0.16,0.54,0.16,0.83
	c0,0.61-0.21,1.12-0.64,1.56c-0.43,0.43-0.95,0.65-1.55,0.65c-0.61,0-1.12-0.22-1.56-0.65c-0.43-0.43-0.65-0.95-0.65-1.56
	c0-0.29,0.05-0.57,0.16-0.83h-1c0.11,0.27,0.17,0.55,0.17,0.83c0,0.61-0.22,1.12-0.65,1.56s-0.95,0.65-1.56,0.65
	c-0.61,0-1.12-0.22-1.55-0.65s-0.64-0.95-0.64-1.56c0-0.29,0.05-0.57,0.16-0.83H9.97c0.12,0.29,0.18,0.57,0.18,0.83
	c0,0.61-0.22,1.12-0.65,1.56s-0.95,0.65-1.56,0.65s-1.12-0.22-1.56-0.65s-0.65-0.95-0.65-1.56c0-0.29,0.06-0.57,0.17-0.84
	c-0.24-0.04-0.45-0.15-0.61-0.34s-0.24-0.41-0.24-0.66v-0.86H5.03v-5.55H4.6c-0.1,0-0.18-0.03-0.25-0.1
	C4.28,12.86,4.25,12.78,4.25,12.68z M6.3,16.62c0,0.21,0.07,0.39,0.22,0.54c0.15,0.15,0.33,0.22,0.54,0.22h1.44
	c0.21,0,0.39-0.07,0.53-0.22c0.14-0.15,0.22-0.33,0.22-0.54v-2.3c0-0.21-0.07-0.38-0.22-0.53c-0.15-0.15-0.32-0.22-0.53-0.22H7.07
	c-0.21,0-0.39,0.07-0.54,0.23c-0.15,0.15-0.22,0.32-0.22,0.52V16.62z M15.78,5.43c0,0.41,0.16,0.76,0.47,1.04
	c0,0.2,0.09,0.43,0.26,0.68s0.36,0.4,0.56,0.44c0.04,0.22,0.15,0.41,0.31,0.57c0.16,0.15,0.36,0.25,0.59,0.3
	c-0.11,0.11-0.16,0.24-0.16,0.39c0,0.18,0.06,0.33,0.18,0.45c0.12,0.12,0.27,0.18,0.45,0.18c0.18,0,0.33-0.06,0.46-0.19
	c0.13-0.12,0.19-0.28,0.19-0.45c0-0.02,0-0.05-0.01-0.09c-0.01-0.04-0.01-0.08-0.01-0.1h0.03c0.21,0,0.39-0.08,0.54-0.23
	c0.15-0.15,0.23-0.34,0.23-0.55c0-0.1-0.04-0.22-0.12-0.38c0.17-0.09,0.31-0.25,0.41-0.47h0.45C21,7,21.34,6.85,21.61,6.57
	c0.28-0.28,0.42-0.61,0.42-1.01c0-0.34-0.11-0.64-0.33-0.9c-0.22-0.26-0.5-0.43-0.83-0.52c-0.08-0.4-0.29-0.73-0.62-0.99
	s-0.71-0.39-1.12-0.39c-0.41,0-0.77,0.13-1.08,0.38c-0.31,0.25-0.52,0.58-0.62,0.97h-0.11c-0.41,0-0.77,0.13-1.08,0.39
	C15.93,4.75,15.78,5.07,15.78,5.43z"/>
</svg>
